public/luts/cinematic.3dl
0 17 34 51 68 85 102 119 136 153 170 187 204 221 238 255
0 0 12
0 0 12
12 0 12
31 0 12
49 1 12
68 1 12
86 1 12
105 1 12
124 1 11
142 2 11
161 2 11
179 2 11
198 2 11
216 2 11
235 3 11
238 3 11
0 4 12
0 4 12
13 4 12
31 4 12
50 4 12
68 4 12
87 5 12
105 5 11
124 5 11
142 5 11
161 6 11
179 6 11
198 6 11
216 6 11
235 6 11
239 6 11
0 22 12
0 22 12
14 23 12
33 23 12
51 23 11
70 23 11
88 23 11
107 24 11
125 24 11
144 24 11
162 24 11
181 24 11
199 25 11
218 25 11
236 25 11
240 25 11
0 41 11
0 41 11
16 41 11
34 42 11
53 42 11
71 42 11
90 42 11
108 42 11
127 43 11
145 43 11
164 43 11
182 43 11
201 43 10
219 44 10
238 44 10
242 44 10
0 60 11
0 60 11
17 60 11
36 60 11
54 61 11
73 61 11
91 61 11
110 61 11
128 61 11
147 62 10
165 62 10
184 62 10
202 62 10
221 62 10
239 63 10
243 63 10
0 79 11
0 79 11
19 79 11
37 79 11
56 79 11
74 80 11
93 80 10
111 80 10
130 80 10
148 80 10
167 81 10
185 81 10
204 81 10
222 81 10
241 81 10
244 81 10
0 97 11
1 98 11
20 98 10
39 98 10
57 98 10
76 98 10
94 99 10
113 99 10
131 99 10
150 99 10
168 99 10
187 100 10
205 100 10
224 100 10
242 100 9
246 100 9
0 116 10
3 116 10
21 117 10
40 117 10
59 117 10
77 117 10
96 117 10
114 118 10
133 118 10
151 118 10
170 118 10
188 118 9
207 119 9
226 119 9
245 119 8
249 119 8
1 135 10
4 135 10
23 135 10
41 135 10
60 136 10
78 136 10
97 136 10
116 136 9
134 137 9
153 137 9
172 137 9
191 137 8
210 137 8
229 138 7
248 138 7
252 138 7
2 154 10
6 154 10
24 154 10
43 154 10
61 154 9
80 155 9
99 155 9
118 155 9
137 155 8
156 156 8
175 156 7
195 156 7
214 156 7
233 156 6
252 157 6
255 157 6
4 173 9
7 173 9
26 173 9
45 173 9
64 173 8
83 173 8
102 174 8
122 174 7
141 174 7
160 174 6
179 175 6
198 175 6
217 175 5
236 175 5
254 175 5
255 175 5
7 191 8
10 191 8
29 192 8
49 192 7
68 192 7
87 192 7
106 192 6
125 193 6
144 193 6
163 193 5
182 193 5
201 194 5
219 194 5
238 194 5
255 194 5
255 194 5
10 210 7
14 210 7
33 210 7
52 211 6
71 211 6
90 211 5
109 211 5
128 211 5
147 212 5
165 212 5
184 212 5
203 212 5
222 212 5
241 213 5
255 213 4
255 213 4
13 229 6
17 229 6
36 229 5
55 229 5
74 230 5
93 230 5
111 230 5
130 230 5
149 230 5
168 231 5
187 231 4
206 231 4
224 231 4
243 231 4
255 232 4
255 232 4
16 248 5
20 248 5
39 248 5
57 248 5
76 248 5
95 249 5
114 249 5
133 249 4
152 249 4
170 249 4
189 250 4
208 250 4
227 250 4
246 250 4
255 250 4
255 251 4
16 251 5
20 251 5
39 252 5
58 252 5
77 252 5
96 252 5
114 253 4
133 253 4
152 253 4
171 253 4
190 253 4
209 254 4
227 254 4
246 254 4
255 254 4
255 254 4
0 0 16
0 0 16
12 0 15
31 0 15
49 1 15
68 1 15
87 1 15
105 1 15
124 1 15
142 2 15
161 2 15
179 2 15
198 2 15
216 2 15
235 3 14
238 3 14
0 4 16
0 4 16
13 4 15
31 4 15
50 4 15
68 4 15
87 5 15
105 5 15
124 5 15
142 5 15
161 6 15
179 6 15
198 6 15
216 6 15
235 6 14
239 6 14
0 22 15
0 22 15
14 23 15
33 23 15
51 23 15
70 23 15
88 23 15
107 24 15
125 24 15
144 24 15
162 24 14
181 24 14
199 25 14
218 25 14
236 25 14
240 25 14
0 41 15
0 41 15
16 41 15
34 42 15
53 42 15
71 42 15
90 42 15
108 42 14
127 43 14
145 43 14
164 43 14
182 43 14
201 43 14
219 44 14
238 44 14
242 44 14
0 60 15
0 60 15
17 60 15
36 60 15
54 61 14
73 61 14
91 61 14
110 61 14
128 61 14
147 62 14
165 62 14
184 62 14
202 62 14
221 62 14
239 63 14
243 63 14
0 79 14
0 79 14
19 79 14
37 79 14
56 79 14
74 80 14
93 80 14
111 80 14
130 80 14
148 80 14
167 81 14
185 81 14
204 81 13
222 81 13
241 81 13
244 81 13
0 98 14
2 98 14
20 98 14
39 98 14
57 98 14
76 98 14
94 99 14
113 99 14
131 99 14
150 99 13
168 99 13
187 100 13
205 100 13
224 100 13
242 100 13
246 100 13
0 116 14
3 116 14
21 117 14
40 117 14
59 117 14
77 117 13
96 117 13
114 118 13
133 118 13
151 118 13
170 118 13
188 118 13
207 119 13
226 119 12
245 119 12
249 119 12
1 135 14
4 135 14
23 135 13
41 136 13
60 136 13
79 136 13
97 136 13
116 136 13
134 137 13
153 137 13
172 137 12
191 137 12
210 137 11
229 138 11
248 138 11
252 138 11
2 154 13
6 154 13
24 154 13
43 154 13
61 154 13
80 155 13
99 155 12
118 155 12
137 155 12
156 156 11
176 156 11
195 156 10
214 156 10
233 156 10
252 157 9
255 157 9
4 173 13
7 173 13
26 173 13
45 173 12
64 173 12
83 173 12
103 174 11
122 174 11
141 174 10
160 174 10
179 175 10
198 175 9
217 175 9
236 175 9
255 175 9
255 175 9
7 191 12
10 191 12
30 192 11
49 192 11
68 192 11
87 192 10
106 192 10
125 193 9
144 193 9
163 193 9
182 193 9
201 194 9
219 194 9
238 194 8
255 194 8
255 194 8
10 210 11
14 210 10
33 210 10
52 211 10
71 211 9
90 211 9
109 211 9
128 211 9
147 212 9
165 212 8
184 212 8
203 212 8
222 213 8
241 213 8
255 213 8
255 213 8
13 229 9
17 229 9
36 229 9
55 229 9
74 230 9
93 230 9
111 230 8
130 230 8
149 230 8
168 231 8
187 231 8
206 231 8
224 231 8
243 232 8
255 232 8
255 232 8
16 248 9
20 248 9
39 248 9
57 248 8
76 248 8
95 249 8
114 249 8
133 249 8
152 249 8
170 249 8
189 250 8
208 250 8
227 250 8
246 250 7
255 250 7
255 251 7
17 251 9
20 251 9
39 252 8
58 252 8
77 252 8
96 252 8
114 253 8
133 253 8
152 253 8
171 253 8
190 253 8
209 254 8
227 254 7
246 254 7
255 254 7
255 254 7
0 0 34
0 0 34
13 0 34
31 0 33
50 1 33
68 1 33
87 1 33
105 1 33
124 1 33
142 2 33
161 2 33
179 2 33
198 2 33
216 3 33
235 3 33
238 3 33
0 4 34
0 4 34
13 4 33
31 4 33
50 4 33
68 5 33
87 5 33
105 5 33
124 5 33
143 5 33
161 6 33
180 6 33
198 6 33
217 6 33
235 6 32
239 6 32
0 22 33
0 23 33
14 23 33
33 23 33
51 23 33
70 23 33
88 24 33
107 24 33
125 24 33
144 24 33
163 24 33
181 25 32
200 25 32
218 25 32
237 25 32
240 25 32
0 41 33
0 41 33
16 41 33
34 42 33
53 42 33
71 42 33
90 42 33
108 43 33
127 43 32
145 43 32
164 43 32
182 43 32
201 44 32
220 44 32
238 44 32
242 44 32
0 60 33
0 60 33
17 60 33
36 60 33
54 61 32
73 61 32
91 61 32
110 61 32
128 61 32
147 62 32
165 62 32
184 62 32
202 62 32
221 63 32
240 63 32
243 63 32
0 79 32
0 79 32
19 79 32
37 79 32
56 79 32
74 80 32
93 80 32
111 80 32
130 80 32
148 80 32
167 81 32
185 81 32
204 81 32
222 81 31
241 81 31
245 82 31
0 98 32
2 98 32
20 98 32
39 98 32
57 98 32
76 98 32
94 99 32
113 99 32
131 99 32
150 99 31
168 99 31
187 100 31
205 100 31
224 100 31
242 100 31
246 100 31
0 116 32
3 116 32
22 117 32
40 117 32
59 117 32
77 117 32
96 117 31
114 118 31
133 118 31
151 118 31
170 118 31
188 118 31
207 119 31
226 119 30
246 119 30
249 119 30
1 135 32
5 135 32
23 135 32
42 136 31
60 136 31
79 136 31
97 136 31
116 136 31
134 137 31
153 137 31
173 137 30
192 137 30
211 137 29
230 138 29
249 138 29
253 138 29
2 154 31
6 154 31
25 154 31
43 154 31
62 155 31
81 155 31
100 155 30
119 155 30
138 155 30
157 156 29
176 156 29
195 156 28
214 156 28
233 156 28
252 157 27
255 157 27
4 173 31
8 173 31
27 173 31
46 173 30
65 173 30
84 174 29
103 174 29
122 174 29
141 174 28
160 174 28
179 175 28
198 175 27
217 175 27
236 175 27
255 175 27
255 175 27
7 191 30
11 192 30
30 192 29
49 192 29
68 192 29
87 192 28
106 193 28
125 193 27
144 193 27
163 193 27
182 193 27
201 194 27
220 194 27
238 194 26
255 194 26
255 194 26
10 210 28
14 210 28
33 211 28
52 211 28
71 211 27
90 211 27
109 211 27
128 212 27
147 212 27
166 212 27
184 212 26
203 212 26
222 213 26
241 213 26
255 213 26
255 213 26
14 229 27
17 229 27
36 229 27
55 229 27
74 230 27
93 230 27
112 230 26
130 230 26
149 231 26
168 231 26
187 231 26
206 231 26
225 231 26
243 232 26
255 232 26
255 232 26
16 248 27
20 248 27
39 248 27
58 248 26
76 248 26
95 249 26
114 249 26
133 249 26
152 249 26
171 250 26
189 250 26
208 250 26
227 250 26
246 250 25
255 251 25
255 251 25
17 252 27
20 252 27
39 252 26
58 252 26
77 252 26
96 252 26
115 253 26
133 253 26
152 253 26
171 253 26
190 253 26
209 254 26
228 254 25
246 254 25
255 254 25
255 254 25
0 0 52
0 0 52
13 0 52
31 1 52
50 1 51
68 1 51
87 1 51
105 1 51
124 2 51
142 2 51
161 2 51
179 2 51
198 2 51
216 3 51
235 3 51
239 3 51
0 4 52
0 4 52
13 4 52
32 4 51
50 4 51
69 5 51
87 5 51
106 5 51
124 5 51
143 5 51
161 6 51
180 6 51
198 6 51
217 6 51
235 6 51
239 7 51
0 23 51
0 23 51
14 23 51
33 23 51
52 23 51
70 23 51
89 24 51
107 24 51
126 24 51
144 24 51
163 24 51
181 25 51
200 25 50
218 25 50
237 25 50
240 25 50
0 41 51
0 41 51
16 42 51
34 42 51
53 42 51
72 42 51
90 42 51
109 43 51
127 43 50
146 43 50
164 43 50
183 43 50
201 44 50
220 44 50
238 44 50
242 44 50
0 60 51
0 60 51
17 60 51
36 61 51
54 61 51
73 61 50
91 61 50
110 61 50
129 62 50
147 62 50
166 62 50
184 62 50
203 62 50
221 63 50
240 63 50
243 63 50
0 79 51
0 79 51
19 79 50
37 79 50
56 80 50
74 80 50
93 80 50
111 80 50
130 80 50
149 81 50
167 81 50
186 81 50
204 81 50
223 81 49
241 82 49
245 82 49
0 98 50
2 98 50
20 98 50
39 98 50
57 98 50
76 99 50
94 99 50
113 99 50
131 99 50
150 99 50
169 100 49
187 100 49
206 100 49
224 100 49
243 100 49
246 100 49
0 116 50
3 116 50
22 117 50
40 117 50
59 117 50
77 117 50
96 117 50
114 118 49
133 118 49
151 118 49
170 118 49
189 119 49
208 119 49
227 119 48
246 119 48
250 119 48
1 135 50
5 135 50
23 135 50
42 136 49
