public/luts/cinematic.3dl
0 51 102 153 204 255
0 0 12
31 0 12
86 1 12
142 2 11
198 2 11
238 3 11
0 41 11
34 42 11
90 42 11
145 43 11
201 43 10
242 44 10
0 97 11
39 98 10
94 99 10
150 99 10
205 100 10
246 100 9
2 154 10
43 154 10
99 155 9
156 156 8
214 156 7
255 157 6
10 210 7
52 211 6
109 211 5
165 212 5
222 212 5
255 213 4
16 251 5
58 252 5
114 253 4
171 253 4
227 254 4
255 254 4
0 0 52
31 1 52
87 1 51
142 2 51
198 2 51
239 3 51
0 41 51
34 42 51
90 42 51
146 43 50
201 44 50
242 44 50
0 98 50
39 98 50
94 99 50
150 99 50
206 100 49
246 100 49
3 154 49
43 154 49
100 155 48
157 156 47
214 156 46
255 157 45
11 210 46
53 211 46
109 211 45
166 212 45
222 213 44
255 213 44
17 252 45
58 252 44
115 253 44
171 253 44
228 254 44
255 254 43
0 0 106
32 1 106
87 1 105
143 2 105
198 3 105
239 3 105
0 42 105
35 42 105
90 43 105
146 43 105
202 44 104
242 44 104
0 98 104
39 98 104
95 99 104
150 100 104
206 100 103
247 101 103
3 154 104
44 155 103
101 155 102
158 156 101
215 157 100
255 157 99
12 211 100
54 211 99
110 212 99
167 212 99
223 213 98
255 213 98
18 252 99
59 252 99
116 253 98
172 253 98
229 254 98
255 255 97
0 1 160
32 1 160
88 2 160
143 2 159
199 3 159
240 3 159
0 42 159
35 42 159
91 43 159
146 43 159
202 44 159
243 44 158
0 98 159
40 99 158
95 99 158
151 100 158
206 100 158
248 101 157
3 154 158
45 155 157
102 155 156
159 156 155
216 157 154
255 157 153
13 211 154
54 211 154
111 212 153
167 212 153
224 213 153
255 214 152
19 252 153
60 252 153
116 253 152
173 254 152
229 254 152
255 255 152
0 1 214
33 1 214
88 2 214
144 2 214
199 3 213
240 3 213
0 42 214
36 42 213
91 43 213
147 44 213
202 44 213
243 45 212
0 98 213
40 99 213
96 99 212
151 100 212
207 101 212
249 101 211
4 155 212
46 155 211
103 156 210
160 156 209
217 157 208
255 157 208
14 211 208
55 211 208
112 212 207
168 213 207
225 213 207
255 214 207
19 252 207
61 253 207
117 253 207
174 254 206
230 255 206
255 255 206
0 1 254
33 1 254
88 2 253
144 3 253
200 3 253
240 4 253
0 42 253
36 43 253
92 43 253
147 44 253
203 44 252
244 45 252
0 98 252
41 99 252
96 99 252
152 100 252
208 101 251
250 101 250
5 155 251
46 155 251
104 156 249
161 156 248
218 157 247
255 158 247
14 211 248
56 212 247
112 212 247
169 213 247
225 213 246
255 214 246
20 252 247
61 253 247
118 253 246
174 254 246
231 255 246
255 255 245
